static/img/device/component-terminal.svg

<svg width="86" height="82" viewBox="0 0 86 82" fill="none" xmlns="http://www.w3.org/2000/svg">
<g clip-path="url(#clip0_784_38682)">
<path d="M81.94 0.400005C81.94 0.400005 81.92 0.380005 81.9 0.380005H4.61C4.61 0.380005 4.57 0.390005 4.57 0.410005C1.1 7.59 0.420001 19.97 0.380001 20.82V30.91H0.440001C0.440001 30.91 0.590001 30.87 0.830001 30.84V31.04V80H7.16V80.94H22.94V80H23.25H35.41V81.47H50.57V80H63.03V80.94H78.81V80H85.11V30.84C85.36 30.87 85.51 30.9 85.52 30.9H85.58V20.87C86.04 6.32001 81.99 0.450005 81.95 0.390005L81.94 0.400005Z" fill="white"/>
<path d="M42.97 20.87H0.419998V30.85C0.419998 30.85 7.55 29.42 7.19 35.84V80.88H22.87V57.54C20.53 55.65 19.04 52.77 19.04 49.53C19.04 46.29 20.54 43.41 22.87 41.52V31.91H35.43V41.26C37.97 43.13 39.62 46.14 39.62 49.53C39.62 52.92 37.97 55.93 35.43 57.8V81.41H50.49V57.6C48.1 55.72 46.57 52.8 46.57 49.53C46.57 46.26 48.11 43.34 50.49 41.46V31.91H63.05V41.32C65.54 43.2 67.15 46.17 67.15 49.53C67.15 52.89 65.54 55.86 63.05 57.74V80.88H78.73V35.84C78.37 29.42 85.5 30.85 85.5 30.85V20.87H42.95H42.97Z" fill="white" stroke="#231815" stroke-width="0.85" stroke-miterlimit="10"/>
<path d="M29.35 57.48C33.7793 57.48 37.37 53.8893 37.37 49.46C37.37 45.0307 33.7793 41.44 29.35 41.44C24.9207 41.44 21.33 45.0307 21.33 49.46C21.33 53.8893 24.9207 57.48 29.35 57.48Z" fill="white" stroke="#231815" stroke-width="0.85" stroke-miterlimit="10"/>
<path d="M56.81 57.48C61.2393 57.48 64.83 53.8893 64.83 49.46C64.83 45.0307 61.2393 41.44 56.81 41.44C52.3807 41.44 48.79 45.0307 48.79 49.46C48.79 53.8893 52.3807 57.48 56.81 57.48Z" fill="white" stroke="#231815" stroke-width="0.85" stroke-miterlimit="10"/>
<path d="M34.37 49.46C34.37 47.41 33.12 45.66 31.35 44.91V43.71H27.52V44.91C25.75 45.66 24.5 47.41 24.5 49.46C24.5 51.51 25.75 53.26 27.52 54.01V55.21H31.35V54.01C33.12 53.26 34.37 51.51 34.37 49.46Z" fill="#231815"/>
<path d="M61.75 49.46C61.75 47.41 60.5 45.66 58.73 44.91V43.71H54.9V44.91C53.13 45.66 51.88 47.41 51.88 49.46C51.88 51.51 53.13 53.26 54.9 54.01V55.21H58.73V54.01C60.5 53.26 61.75 51.51 61.75 49.46Z" fill="#231815"/>
<path d="M31.08 57.48H27.2V78.89H31.08V57.48Z" fill="#231815"/>
<path d="M31.08 31.92H27.2V34.64H31.08V31.92Z" fill="#231815"/>
<path d="M58.76 31.92H54.88V34.64H58.76V31.92Z" fill="#231815"/>
<path d="M58.76 57.48H54.88V78.89H58.76V57.48Z" fill="#231815"/>
<path d="M14.85 41.87C17.8379 41.87 20.26 39.4478 20.26 36.46C20.26 33.4721 17.8379 31.05 14.85 31.05C11.8621 31.05 9.44 33.4721 9.44 36.46C9.44 39.4478 11.8621 41.87 14.85 41.87Z" stroke="#231815" stroke-miterlimit="10"/>
<path d="M42.97 41.87C45.9579 41.87 48.38 39.4478 48.38 36.46C48.38 33.4721 45.9579 31.05 42.97 31.05C39.9821 31.05 37.56 33.4721 37.56 36.46C37.56 39.4478 39.9821 41.87 42.97 41.87Z" stroke="#231815" stroke-miterlimit="10"/>
<path d="M70.86 41.87C73.8479 41.87 76.27 39.4478 76.27 36.46C76.27 33.4721 73.8479 31.05 70.86 31.05C67.8721 31.05 65.45 33.4721 65.45 36.46C65.45 39.4478 67.8721 41.87 70.86 41.87Z" stroke="#231815" stroke-miterlimit="10"/>
<path d="M14.85 38.79C16.1368 38.79 17.18 37.7468 17.18 36.46C17.18 35.1732 16.1368 34.13 14.85 34.13C13.5632 34.13 12.52 35.1732 12.52 36.46C12.52 37.7468 13.5632 38.79 14.85 38.79Z" fill="#231815"/>
<path d="M42.98 38.79C44.2668 38.79 45.31 37.7468 45.31 36.46C45.31 35.1732 44.2668 34.13 42.98 34.13C41.6932 34.13 40.65 35.1732 40.65 36.46C40.65 37.7468 41.6932 38.79 42.98 38.79Z" fill="#231815"/>
<path d="M70.86 38.79C72.1468 38.79 73.19 37.7468 73.19 36.46C73.19 35.1732 72.1468 34.13 70.86 34.13C69.5732 34.13 68.53 35.1732 68.53 36.46C68.53 37.7468 69.5732 38.79 70.86 38.79Z" fill="#231815"/>
<path d="M0.869999 31.04V79.95H7.2" stroke="#231815" stroke-miterlimit="10"/>
<path d="M23.24 79.95H35.44" stroke="#231815" stroke-miterlimit="10"/>
<path d="M50.5 79.95H63.07" stroke="#231815" stroke-miterlimit="10"/>
<path d="M85.05 30.79V79.95H78.75" stroke="#231815" stroke-miterlimit="10"/>
<path d="M42.97 75.71C45.9579 75.71 48.38 73.2879 48.38 70.3C48.38 67.3122 45.9579 64.89 42.97 64.89C39.9821 64.89 37.56 67.3122 37.56 70.3C37.56 73.2879 39.9821 75.71 42.97 75.71Z" stroke="#898989" stroke-width="0.5" stroke-miterlimit="10"/>
<path d="M38.56 70.5001H42.97H47.39" stroke="#898989" stroke-width="0.5" stroke-miterlimit="10" stroke-linecap="round"/>
<path d="M40.01 72.0001H45.93" stroke="#898989" stroke-width="0.5" stroke-miterlimit="10" stroke-linecap="round"/>
<path d="M41.42 73.5101H44.53" stroke="#898989" stroke-width="0.5" stroke-miterlimit="10" stroke-linecap="round"/>
<path d="M42.97 66.3V70.5" stroke="#898989" stroke-width="0.5" stroke-miterlimit="10" stroke-linecap="round"/>
<path d="M11.62 74.94V66.06L18.57 74.94V66.06" stroke="#898989" stroke-width="0.5" stroke-linecap="round" stroke-linejoin="round"/>
<path d="M68.19 65.85V74.74H73.53" stroke="#898989" stroke-width="0.5" stroke-linecap="round" stroke-linejoin="round"/>
<path d="M0.419998 20.87C0.419998 20.87 0.999998 7.90998 4.61 0.419983H81.9C81.9 0.419983 85.99 6.16998 85.52 20.87" stroke="#231815" stroke-width="0.85" stroke-linecap="round" stroke-linejoin="round"/>
<path d="M15.39 7.67999H14.81C14.081 7.67999 13.49 8.27098 13.49 8.99999V15.14C13.49 15.869 14.081 16.46 14.81 16.46H15.39C16.119 16.46 16.71 15.869 16.71 15.14V8.99999C16.71 8.27098 16.119 7.67999 15.39 7.67999Z" fill="#231815"/>
<path d="M8.14 1.84998V6.92998C8.14 7.83998 8.81 8.56998 9.68 8.72998V9.05998C9.68 9.35998 9.92 9.59998 10.22 9.59998H11.41C11.71 9.59998 11.95 9.35998 11.95 9.05998V8.72998C12.82 8.56998 13.49 7.83998 13.49 6.92998V1.84998H8.14Z" fill="#231815"/>
<path d="M16.21 1.84998V6.92998C16.21 7.83998 16.88 8.56998 17.75 8.72998V9.05998C17.75 9.35998 17.99 9.59998 18.29 9.59998H19.48C19.78 9.59998 20.02 9.35998 20.02 9.05998V8.72998C20.89 8.56998 21.56 7.83998 21.56 6.92998V1.84998H16.21Z" fill="#231815"/>
<path d="M43.51 7.67999H42.93C42.201 7.67999 41.61 8.27098 41.61 8.99999V15.14C41.61 15.869 42.201 16.46 42.93 16.46H43.51C44.239 16.46 44.83 15.869 44.83 15.14V8.99999C44.83 8.27098 44.239 7.67999 43.51 7.67999Z" fill="#231815"/>
<path d="M36.27 1.84998V6.92998C36.27 7.83998 36.94 8.56998 37.81 8.72998V9.05998C37.81 9.35998 38.05 9.59998 38.35 9.59998H39.54C39.84 9.59998 40.08 9.35998 40.08 9.05998V8.72998C40.95 8.56998 41.62 7.83998 41.62 6.92998V1.84998H36.27Z" fill="#231815"/>
<path d="M44.33 1.84998V6.92998C44.33 7.83998 45 8.56998 45.87 8.72998V9.05998C45.87 9.35998 46.11 9.59998 46.41 9.59998H47.6C47.9 9.59998 48.14 9.35998 48.14 9.05998V8.72998C49.01 8.56998 49.68 7.83998 49.68 6.92998V1.84998H44.33Z" fill="#231815"/>
<path d="M71.4 7.67999H70.82C70.091 7.67999 69.5 8.27098 69.5 8.99999V15.14C69.5 15.869 70.091 16.46 70.82 16.46H71.4C72.129 16.46 72.72 15.869 72.72 15.14V8.99999C72.72 8.27098 72.129 7.67999 71.4 7.67999Z" fill="#231815"/>
<path d="M64.15 1.84998V6.92998C64.15 7.83998 64.82 8.56998 65.69 8.72998V9.05998C65.69 9.35998 65.93 9.59998 66.23 9.59998H67.42C67.72 9.59998 67.96 9.35998 67.96 9.05998V8.72998C68.83 8.56998 69.5 7.83998 69.5 6.92998V1.84998H64.15Z" fill="#231815"/>
<path d="M72.22 1.84998V6.92998C72.22 7.83998 72.89 8.56998 73.76 8.72998V9.05998C73.76 9.35998 74 9.59998 74.3 9.59998H75.49C75.79 9.59998 76.03 9.35998 76.03 9.05998V8.72998C76.9 8.56998 77.57 7.83998 77.57 6.92998V1.84998H72.22Z" fill="#231815"/>
<path d="M82.32 16.88C82.68 7.52001 79.38 3.76001 79.38 3.76001C80.18 10.72 74.21 10.48 74.21 10.48V16.64C70.91 20.08 68.06 16.64 68.06 16.64V10.32C61.38 10.64 62.45 3.76001 62.45 3.76001H51.22C51.67 10.88 46.23 10.48 46.23 10.48V16.56C43.11 20 39.99 16.56 39.99 16.56V10.64C33.66 10.56 34.37 4.24001 34.37 4.24001H23.33C23.24 11.04 18.25 11.2 18.25 11.2V16.88C14.77 20 11.83 16.88 11.83 16.88V11.2C5.77 10.4 5.95 5.52001 5.95 5.52001C4.35 10.8 4.03 16.88 4.03 16.88V18.82H82.34L82.31 16.88H82.32Z" stroke="#231815" stroke-width="0.5" stroke-linecap="round" stroke-linejoin="round"/>
</g>
<defs>
<clipPath id="clip0_784_38682">
<rect width="85.98" height="81.85" fill="white"/>
</clipPath>
</defs>
</svg>

<svg xmlns="http://www.w3.org/2000/svg" width="86" height="82" fill="none" viewBox="0 0 86 82"><g clip-path="url(#a)"><path fill="#fff" d="M81.94.4s-.02-.02-.04-.02H4.61s-.04.01-.04.03C1.1 7.59.42 19.97.38 20.82v10.09h.06s.15-.04.39-.07V80h6.33v.94h15.78V80h12.47v1.47h15.16V80h12.46v.94h15.78V80h6.3V30.84c.25.03.4.06.41.06h.06V20.87C86.04 6.32 81.99.45 81.95.39z"/><path fill="#fff" stroke="#231815" stroke-miterlimit="10" stroke-width=".85" d="M42.97 20.87H.42v9.98s7.13-1.43 6.77 4.99v45.04h15.68V57.54a10.26 10.26 0 0 1-3.83-8.01c0-3.24 1.5-6.12 3.83-8.01v-9.61h12.56v9.35a10.254 10.254 0 0 1 0 16.54v23.61h15.06V57.6c-2.39-1.88-3.92-4.8-3.92-8.07s1.54-6.19 3.92-8.07v-9.55h12.56v9.41c2.49 1.88 4.1 4.85 4.1 8.21s-1.61 6.33-4.1 8.21v23.14h15.68V35.84c-.36-6.42 6.77-4.99 6.77-4.99v-9.98H42.95z"/><path fill="#fff" stroke="#231815" stroke-miterlimit="10" stroke-width=".85" d="M29.35 57.48a8.02 8.02 0 1 0 0-16.04 8.02 8.02 0 0 0 0 16.04ZM56.81 57.48a8.02 8.02 0 1 0 0-16.04 8.02 8.02 0 0 0 0 16.04Z"/><path fill="#231815" d="M34.37 49.46c0-2.05-1.25-3.8-3.02-4.55v-1.2h-3.83v1.2c-1.77.75-3.02 2.5-3.02 4.55s1.25 3.8 3.02 4.55v1.2h3.83v-1.2c1.77-.75 3.02-2.5 3.02-4.55M61.75 49.46c0-2.05-1.25-3.8-3.02-4.55v-1.2H54.9v1.2c-1.77.75-3.02 2.5-3.02 4.55s1.25 3.8 3.02 4.55v1.2h3.83v-1.2c1.77-.75 3.02-2.5 3.02-4.55M31.08 57.48H27.2v21.41h3.88zM31.08 31.92H27.2v2.72h3.88zM58.76 31.92h-3.88v2.72h3.88zM58.76 57.48h-3.88v21.41h3.88z"/><path stroke="#231815" stroke-miterlimit="10" d="M14.85 41.87a5.41 5.41 0 1 0 0-10.82 5.41 5.41 0 0 0 0 10.82ZM42.97 41.87a5.41 5.41 0 1 0 0-10.82 5.41 5.41 0 0 0 0 10.82ZM70.86 41.87a5.41 5.41 0 1 0 0-10.82 5.41 5.41 0 0 0 0 10.82Z"/><path fill="#231815" d="M14.85 38.79a2.33 2.33 0 1 0 0-4.66 2.33 2.33 0 0 0 0 4.66M42.98 38.79a2.33 2.33 0 1 0 0-4.66 2.33 2.33 0 0 0 0 4.66M70.86 38.79a2.33 2.33 0 1 0 0-4.66 2.33 2.33 0 0 0 0 4.66"/><path stroke="#231815" stroke-miterlimit="10" d="M.87 31.04v48.91H7.2M23.24 79.95h12.2M50.5 79.95h12.57M85.05 30.79v49.16h-6.3"/><path stroke="#898989" stroke-miterlimit="10" stroke-width=".5" d="M42.97 75.71a5.41 5.41 0 1 0 0-10.82 5.41 5.41 0 0 0 0 10.82Z"/><path stroke="#898989" stroke-linecap="round" stroke-miterlimit="10" stroke-width=".5" d="M38.56 70.5h8.83M40.01 72h5.92M41.42 73.51h3.11M42.97 66.3v4.2"/><path stroke="#898989" stroke-linecap="round" stroke-linejoin="round" stroke-width=".5" d="M11.62 74.94v-8.88l6.95 8.88v-8.88M68.19 65.85v8.89h5.34"/><path stroke="#231815" stroke-linecap="round" stroke-linejoin="round" stroke-width=".85" d="M.42 20.87S1 7.91 4.61.42H81.9s4.09 5.75 3.62 20.45"/><path fill="#231815" d="M15.39 7.68h-.58A1.32 1.32 0 0 0 13.49 9v6.14c0 .729.591 1.32 1.32 1.32h.58a1.32 1.32 0 0 0 1.32-1.32V9a1.32 1.32 0 0 0-1.32-1.32M8.14 1.85v5.08c0 .91.67 1.64 1.54 1.8v.33c0 .3.24.54.54.54h1.19c.3 0 .54-.24.54-.54v-.33c.87-.16 1.54-.89 1.54-1.8V1.85zM16.21 1.85v5.08c0 .91.67 1.64 1.54 1.8v.33c0 .3.24.54.54.54h1.19c.3 0 .54-.24.54-.54v-.33c.87-.16 1.54-.89 1.54-1.8V1.85zM43.51 7.68h-.58A1.32 1.32 0 0 0 41.61 9v6.14c0 .729.591 1.32 1.32 1.32h.58a1.32 1.32 0 0 0 1.32-1.32V9a1.32 1.32 0 0 0-1.32-1.32M36.27 1.85v5.08c0 .91.67 1.64 1.54 1.8v.33c0 .3.24.54.54.54h1.19c.3 0 .54-.24.54-.54v-.33c.87-.16 1.54-.89 1.54-1.8V1.85zM44.33 1.85v5.08c0 .91.67 1.64 1.54 1.8v.33c0 .3.24.54.54.54h1.19c.3 0 .54-.24.54-.54v-.33c.87-.16 1.54-.89 1.54-1.8V1.85zM71.4 7.68h-.58A1.32 1.32 0 0 0 69.5 9v6.14c0 .729.591 1.32 1.32 1.32h.58a1.32 1.32 0 0 0 1.32-1.32V9a1.32 1.32 0 0 0-1.32-1.32M64.15 1.85v5.08c0 .91.67 1.64 1.54 1.8v.33c0 .3.24.54.54.54h1.19c.3 0 .54-.24.54-.54v-.33c.87-.16 1.54-.89 1.54-1.8V1.85zM72.22 1.85v5.08c0 .91.67 1.64 1.54 1.8v.33c0 .3.24.54.54.54h1.19c.3 0 .54-.24.54-.54v-.33c.87-.16 1.54-.89 1.54-1.8V1.85z"/><path stroke="#231815" stroke-linecap="round" stroke-linejoin="round" stroke-width=".5" d="M82.32 16.88c.36-9.36-2.94-13.12-2.94-13.12.8 6.96-5.17 6.72-5.17 6.72v6.16c-3.3 3.44-6.15 0-6.15 0v-6.32c-6.68.32-5.61-6.56-5.61-6.56H51.22c.45 7.12-4.99 6.72-4.99 6.72v6.08c-3.12 3.44-6.24 0-6.24 0v-5.92c-6.33-.08-5.62-6.4-5.62-6.4H23.33c-.09 6.8-5.08 6.96-5.08 6.96v5.68c-3.48 3.12-6.42 0-6.42 0V11.2c-6.06-.8-5.88-5.68-5.88-5.68-1.6 5.28-1.92 11.36-1.92 11.36v1.94h78.31l-.03-1.94z"/></g><defs><clipPath id="a"><path fill="#fff" d="M0 0h85.98v81.85H0z"/></clipPath></defs></svg>
